assets/icons/traton/fuel_gauge.svg

<svg xmlns="http://www.w3.org/2000/svg" width="32" height="32" viewBox="0 0 32 32" fill="none">
<path fill-rule="evenodd" clip-rule="evenodd" d="M19.2217 4.55664L19.833 5.83398L19.9316 6.03906V6.0918H19.9336V14.0107H23.1836L24.0254 15.7129L24.1299 15.9229V25.2656L24.1289 25.6201L24.3164 25.999H25.8027L25.9902 25.6201V16.0908L24.0947 12.1289L24.0869 11.9229L23.957 8.66406H25.4014L23.7236 5.16406L25.5264 4.29883L27.8916 9.23145L27.9902 9.43652V26.0869L27.8857 26.2969L27.0439 27.999H23.0752L22.2334 26.2969L22.1289 26.0869V16.8574L22.1299 16.3896L21.9424 16.0107H19.9336V28.0107H4.00977V6.0918H4.01172V6.03906L4.11035 5.83398L4.72168 4.55664L4.99414 3.98926H18.9492L19.2217 4.55664ZM6.01172 26.0107H17.9316V12.0059H6.01172V26.0107ZM6.01172 6.49414V10.0059H17.9316V6.49414L17.6904 5.98926H6.25293L6.01172 6.49414Z" fill="#001D21" />
</svg>

<svg xmlns="http://www.w3.org/2000/svg" fill="none" viewBox="0 0 32 32"><path fill="#001d21" fill-rule="evenodd" d="m19.2 4.6.6 1.2.1.2v8h3.3l.8 1.7.1.2v9.7l.2.4h1.5l.2-.4v-9.5l-2-4V8.7h1.4l-1.7-3.5 1.8-.9 2.4 5v17L27 28h-4l-.8-1.7v-9.9l-.3-.4h-2v12H4V6l.1-.2.6-1.2L5 4h14zM6 26h12V12H6zM6 6.5V10h12V6.5l-.3-.5H6.3z" clip-rule="evenodd"/></svg>
